web/packages/design/src/ResourceIcon/assets/algolia-dark.svg

<svg width="72" height="72" viewBox="0 0 72 72" fill="none" xmlns="http://www.w3.org/2000/svg">
<g clip-path="url(#clip0_15935_6722)">
<path d="M35.999 0.000488281C16.3256 0.000488281 0.287666 15.852 0.0037966 35.4461C-0.284396 55.3455 15.8717 71.8349 35.7872 71.9501C41.9372 71.9861 47.861 70.4827 53.122 67.6258C53.6349 67.3479 53.7142 66.6423 53.2776 66.2563L49.9086 63.2726C49.2242 62.6664 48.2501 62.4951 47.4071 62.8522C43.7355 64.4131 39.7455 65.2109 35.633 65.1605C19.5404 64.9632 6.53856 51.5827 6.79505 35.5023C7.04866 19.6248 20.0519 6.78721 35.999 6.78721H65.2059V58.6675L48.6348 43.9536C48.0988 43.477 47.2774 43.5706 46.8451 44.1422C44.1851 47.6616 39.8522 49.8504 35.0393 49.5192C28.3634 49.0584 22.954 43.6872 22.454 37.0186C21.856 29.064 28.1645 22.3997 35.999 22.3997C43.0857 22.3997 48.9216 27.8501 49.5311 34.7765C49.5858 35.3928 49.864 35.9674 50.3265 36.3778L54.6422 40.201C55.1321 40.6344 55.9088 40.3694 56.0298 39.7258C56.3411 38.0626 56.4506 36.3303 56.3281 34.5533C55.6336 24.4243 47.423 16.2754 37.2829 15.6518C25.6572 14.9362 15.938 24.024 15.6296 35.4159C15.3284 46.5183 24.431 56.0885 35.5422 56.3333C40.1807 56.4355 44.4805 54.9783 47.9547 52.4525L69.6066 71.6333C70.5345 72.4555 72 71.7974 72 70.5576V1.36561C72 0.611048 71.389 0.000488281 70.634 0.000488281H35.999Z" fill="white"/>
</g>
<defs>
<clipPath id="clip0_15935_6722">
<rect width="72" height="72" fill="white" transform="translate(0 0.000488281)"/>
</clipPath>
</defs>
</svg>

<svg xmlns="http://www.w3.org/2000/svg" width="72" height="72" fill="none" viewBox="0 0 72 72"><g clip-path="url(#a)"><path fill="#fff" d="M35.999 0C16.326 0 .288 15.852.004 35.446c-.288 19.9 15.868 36.389 35.783 36.504 6.15.036 12.074-1.467 17.335-4.324a.842.842 0 0 0 .156-1.37l-3.37-2.983a2.38 2.38 0 0 0-2.5-.42 29.1 29.1 0 0 1-11.775 2.307C19.54 64.963 6.539 51.584 6.795 35.503 7.049 19.625 20.052 6.787 35.999 6.787h29.207v51.88L48.635 43.954a1.22 1.22 0 0 0-1.79.188c-2.66 3.52-6.993 5.708-11.806 5.377-6.676-.46-12.085-5.832-12.585-12.5-.598-7.955 5.71-14.62 13.545-14.62 7.087 0 12.923 5.451 13.532 12.377a2.42 2.42 0 0 0 .796 1.602l4.315 3.823a.843.843 0 0 0 1.388-.475c.311-1.663.42-3.396.298-5.173-.694-10.129-8.905-18.278-19.045-18.901-11.626-.716-21.345 8.372-21.653 19.764-.302 11.102 8.801 20.673 19.912 20.917a20.27 20.27 0 0 0 12.413-3.88l21.652 19.18c.927.823 2.393.164 2.393-1.075V1.366C72 .61 71.389 0 70.634 0z"/></g><defs><clipPath id="a"><path fill="#fff" d="M0 0h72v72H0z"/></clipPath></defs></svg>
